X:1
T:Come Children
T:Frank Sewall (1837-1915)
T:Come Children
T:Public Domain
C:Frank Sewall (1837-1915)
Z:Public Domain
%%score 1 ( 2 3 ) 4
L:1/8
M:6/8
K:C
V:1 treble 
V:2 treble 
V:3 treble 
V:4 bass 
V:1
 G | EGG AEE | FAA BGG | eee edc | cBc d2 G | EGG AEE | FAA BGG | eee edA | GcB c4 |] %9
V:2
 G | z [G,C][G,C] z [G,C][G,C] | z [G,F][G,F] z [G,F][G,F] | z [G,C][G,C] z [G,C][G,C] | %4
 z [A,C][A,C] z [B,D][B,D] | z [G,C][G,C] z [G,C][G,C] | z [G,F][G,F] z [G,F][G,F] | %7
 E[CG][^CG] [A,DG][A,DF][A,D] | [G,CE][G,CF][G,B,F] [G,CE]4 |] %9
V:3
 x | E3- E3 | B,3- B,3 | E3- E3 | ^F3 G3 | E3- E3 | B,3- B,3 | x6 | x7 |] %9
V:4
 z | C,3 G,,3 | C,3 G,,3 | C,3 A,,3 | D,3 G,,3 | C,3 G,,3 | D,3 G,,3 | C,2 A,, D,2 ^F,, | %8
 G,,3 C,4 |] %9

